X:1
T:Albacete, 87.87 D
T:Albacete, 87.87 D
T:Robert Frederick Smith (1833–?)
T:Public Domain Courtesy of the Cyber Hymnal™
C:Robert Frederick Smith (1833–?)
Z:Public Domain
Z:Courtesy of the Cyber Hymnal™
%%score ( 1 2 ) ( 3 4 )
L:1/8
Q:1/4=105
M:4/4
K:G
V:1 treble 
V:2 treble 
V:3 bass 
V:4 bass 
V:1
 [GB]2 | [Gd]2 [DB]2 [EG]2 (AG) | (FG) (AB) [Ec]2 [FA]2 | [DB]2 [DG]2 (EF) ([DG][EA]) | %4
 [CA]4 [B,G]2 [DG]2 | [Gd]2 [DB]2 [EG]2 (AG) | (FG) ([FA][^GB]) [Ac]2 [FA]2 | %7
 [GB]2 A[^GB] ([Ac][=FB]) (AG) | F4 E2 [EG]2 | [DG]2 [DA]2 [DB]2 ([Dd][Ec]) | %10
 [DB]2 [FA]2 G2 [DA]2 | [GB]2 [Gc]2 [Gd]2 (ed) | c2 [GB]2 [FA]2 [FA]2 | %13
 [Gd]2 ([Ac][^GB]) [Ac]2 ([=GB][FA]) | (cB) (AG) [DF]2 [FA]2 | [DB]2 [DG]2 (EF) ([DG][EA]) | %16
 [CA]4 [B,G]2 |] %17
V:2
 x2 | x6 E2 | D2 E2 x4 | x4 C2 x2 | x8 | x6 E2 | D2 x6 | x2 (A x2 E2) x | (E2 ^D2) E2 x2 | x8 | %10
 x4 G2 x2 | x6 G2 | (GF) x6 | x8 | G2 E2 x4 | x4 C2 x2 | x6 |] %17
V:3
 [G,D]2 | [G,,B,]2 (G,A,) B,2 (CB,) | (A,B,) ([C,C][B,,^G,]) [A,,A,]2 [D,A,]2 | %3
 G,2 [B,,G,]2 (G,A,) G,2 | (G,2 F,2) [G,,G,]2 [G,B,]2 | [G,,B,]2 (G,A,) B,2 (CB,) | %6
 (A,B,) ([C,C][B,,D]) [A,,C]2 [D,D]2 | [G,D]2 E2 (ED) (CB,) | [B,,A,]4 [E,G,]2 [C,G,]2 | %9
 [C,G,]2 [A,,F,]2 [G,,G,]2 G,2 | [D,G,]2 [D,C]2 [E,B,]2 [F,D]2 | [G,D]2 [E,E]2 [B,D]2 C[B,D] | %12
 ED [G,D]2 [D,D]2 [C,D]2 | [B,,D]2 [E,E]2 [A,,E]2 [D,D]2 | [G,,D]2 (CB,) [D,A,]2 [D,A,]2 | %15
 G,2 [B,,G,]2 (G,A,) G,2 | (G,2 F,2) [G,,G,]2 |] %17
V:4
 x2 | x2 B,,2 (E,D,) C,2 | D,2 x6 | G,2 C,2 (B,,C,) x2 | D,4 x4 | x2 B,,2 (E,D,) C,2 | D,2 x6 | %7
 x2 (C,B,,) A,,2 A,,2 | x8 | x6 (B,,C,) | x8 | x6 C x | A,2 x6 | x8 | x2 C,2 x4 | %15
 G,2 C,2 (B,,C,) x2 | D,4 x2 |] %17

